!!!ONB: MCCC : IFK0008_00 : Extracted Monophonic Melody
!!!COM: Kreisler, Fritz
!!!OTL: Caprice Viennois
!!!SCT: Op.2
!!!ODT: 1910///
**kern
*staff1
*clefG2
*k[f#c#g#d#a#]
*B:
*M4/4
16ff#
16ff#
12bb
12ff#
12bbb
2fff#[
=3
1fff#]
=4
8r
16f#
16f#
12b
12f#
12bb
2ff#[
=5
2.ff#]
4r
=6
2r
2b
=7
4b
4b
4bb[
48bb]
48aa#
48aa
48gg#
48ff##
48ff#
48ee#
48ee
48dd#
48dd
48cc#
48b#
=8
32b
32a#
32a
32g#
32f##
32f#
32a
32f##
2.f#
=9
4f#
4B[
8B]
8ff#
16aa
16ff##
16ff#
16ee
=10
16dd
16b#
16a#
16g#
64f##
64g#
16.f##
8e#[
16e#]
16f##
24g#
24a#
24b#
4cc#
=11
8.f#
32r
32dd
4b[
8b]
8ff#
16aa
16ff##
16ff#
16ee
=12
16dd
16b#
16a#
16g#
64f##
64g#
16.f##
8e#[
16e#]
16f##
24g#
24a#
24b#
4cc#
=13
8.f#
32r
32dd
4cc#
8f##
16dd
16dd
4ff#
=14
1ff#
=15
4ff#
2.f#
=16
*M3/4
4f#
4r
4r
=17
2.r
=18
2.r
=19
2.r
=20
4r
4.dd#
8ee
=21
8dd#
16dd#
16dd#
4dd#
8cc#
8b
=22
4cc#
4.dd#
8ee
=23
4ff#
2ff#[
=24
4ff#]
4.dd#
8ee
=25
4ff#
4.gg#
8aa#
=26
4gg#
2g#
=27
2.g#[
=28
4g#]
4.ee
8dd#
=29
4cc#
4.b#
8cc#
=30
4ee
4.gg#
8aa#
=31
4gg#
2gg#[
=32
4gg#]
4.ee
8ff#
=33
4gg#
4.bb
8aa#
=34
4ff#
2dd#
=35
2.dd#[
=36
4dd#]
4.dd#
8ee
=37
8dd#
16dd#
16dd#
4dd#
8cc#
8b
=38
4cc#
4.dd#
8ee
=39
4ff#
2ff#[
=40
4ff#]
4.dd#
8ee
=41
4ff#
4.gg#
8ff#
=42
4ee
2cc#
=43
2.cc#[
=44
4cc#]
4.b#
8b#
=45
4b#
4.b
8b
=46
4b
4.b
8dd#
=47
4ff#
2aa#
=48
8aa#
16aa#
16ff#
4gg#[
8gg#]
8g#
=49
4ee
4.dd#
8f#
=50
4dd
2dd#
=51
2.dd#[
=52
4dd#]
4.b#
8b#
=53
4b#
4.b
8b
=54
4b
4.b
8ff#
=55
4bb
2ddd#
=56
8ddd#
16ddd#
16aa#
4bb[
8bb]
8g#
=57
4g#
4.gg#
8a#
=58
4a#
2b[
=59
2.b]
=60
4B
8b
8b
8b
8b
=61
8b
8b
8b
8b
8b
8b
=62
8b
8b
2b[
=63
2.b]
=64
4B
8b
8b
8b
8b
=65
8b
8b
8b
8b
8b
8b
=66
8b
8b
2b[
=67
2.b]
=68
*M3/8
8r
16ff#
16ff#
8bb
=69
8ff#
8bbb
8fff#[
=70
8fff#]
32ff#
32ff##
16ff#
16fff#
16eee
=71
16ddd
16ccc#
16bb
16aa
16ff##
16ff#
=72
16ee
16dd
16cc#
16b
8f#
=73
16ee
16ee
8d
16ff##
16ff##
=74
8d
16ff#
16ff#
8d
=75
8ee
8d
8dd
=76
8F##
8b
8f#
=77
16ee
16ee
8d
16ff##
16ff##
=78
8d
16ff#
16ff#
8d
=79
8ee
8d
8dd
=80
8F##
8b
8F##
=81
16aa
16aa
8f##
16bb#
16bb#
=82
8f##
16bb
16bb
8f##
=83
8aa
8f##
8ff##
=84
8B#
8ee
8eee
=85
16bb#
16bb#
8ff##
8ee
=86
8b#
8e
8r
=87
4.r
=88
8r
8b#
8bb
=89
16ff##
16ff##
8ee
8b
=90
8b
8f##
8r
=91
4.r
=92
4.r
=93
8r
8B
16b
16b
=94
16b
16b
16b
16b
8b
=95
8f#
8.b
16b
=96
16b
16b
16b
16b
16b
16A#
=97
16B
16c#
16d
16e#
16f#
16e#
=98
16f#
16a#
16b
16cc#
16dd
16e#
=99
16f#
16a#
16b
16cc#
16dd
16cc#
=100
16b
16cc#
16dd
16ff#
8bb
=101
16f#
16f#
16b
16b
16ff#
16ff#
=102
16b
16b
16ff#
16ff#
16bb
16bb
=103
16ff#
16ff#
16bb
16bb
16fff#
16fff#
=104
16bb
16bb
16fff#
16fff#
8bbb
=105
8r
8r
8f#
=106
4.f#[
=107
4f#]
8f#
=108
*M3/4
4f#
4.dd#
8ee
=109
8dd#
16dd#
16dd#
4dd#
8cc#
8b
=110
4cc#
4.dd#
8ee
=111
4ff#
2ff#[
=112
4ff#]
4.dd#
8ee
=113
4ff#
4.gg#
8aa#
=114
4gg#
2g#
=115
2.g#[
=116
4g#]
4.ee
8dd#
=117
4cc#
4.b#
8cc#
=118
4ee
4.gg#
8aa#
=119
4gg#
2gg#[
=120
4gg#]
4.ee
8ff#
=121
4gg#
4.bb
8aa#
=122
4ff#
2dd#
=123
2.dd#[
=124
4dd#]
4.dd#
8ee
=125
8dd#
16dd#
16dd#
4dd#
8cc#
8b
=126
4cc#
4.dd#
8ee
=127
4ff#
2ff#[
=128
4ff#]
4.dd#
8ee
=129
4ff#
4.gg#
8ff#
=130
4ee
2cc#
=131
2.cc#[
=132
4cc#]
4.b#
8b#
=133
4b#
4.b
8b
=134
4b
4.b
8dd#
=135
4ff#
2aa#
=136
8aa#
16aa#
16ff#
4gg#[
8gg#]
8g#
=137
4ee
4.dd#
8f#
=138
4dd
2dd#
=139
2.dd#[
=140
4dd#]
4.b#
8b#
=141
4b#
4.b
8b
=142
4b
4.b
8ff#
=143
4bb
2ddd#
=144
8ddd#
16ddd#
16aa#
4bb[
8bb]
8g#
=145
4g#
4.gg#
8a#
=146
4a#
2b
=147
2.b[
=148
4b]
4r
4r
==
*-
